src/assets/images/img_draw_item_2.svg

<svg xmlns="http://www.w3.org/2000/svg" width="1163" height="680" fill="none"><path stroke="#2B2A29" stroke-miterlimit="22.926" stroke-width="7" d="M264.123 31.586c36.778-1.678 72.888 3.018 123.04 11.07 50.153 8.053 114.346 19.46 159.15 24.828 44.803 5.368 70.212 4.696 104.651-.672 34.438-5.368 77.903-15.432 116.687-25.833 38.785-10.4 72.888-21.137 100.973-28.183 28.086-7.046 50.152-10.4 83.921-8.052 33.771 2.35 79.245 10.401 114.345 19.124 35.11 8.724 59.85 18.117 73.89 28.182 14.05 10.065 17.39 20.802 18.06 115.414.67 94.612-1.34 273.101-5.35 369.391-4.01 96.29-10.03 110.381-23.07 119.439-13.04 9.059-33.1 13.086-66.54 15.769-33.43 2.685-80.24 4.027-134.405 2.684-54.164-1.341-115.683-5.367-167.508-8.722-51.824-3.355-93.951-6.039-140.427-5.705-46.473.336-97.294 3.693-151.459 7.046-54.164 3.355-111.672 6.712-155.806 8.054-44.134 1.341-74.893.67-103.982-5.369-29.089-6.038-56.505-17.446-76.901-29.19-20.394-11.742-33.769-23.82-46.14-42.274-12.37-18.453-23.739-43.279-31.428-67.1-7.69-23.821-11.703-46.635-15.38-68.108-3.677-21.472-7.022-41.602-12.37-54.686-5.35-13.086-12.706-19.125-17.387-30.869C6.005 366.082 4 348.637 4 335.552c0-13.084 2.005-21.809 6.352-30.866 4.348-9.058 11.033-18.453 17.052-33.885 6.018-15.434 11.368-36.907 20.061-63.747 8.693-26.84 20.73-59.05 38.784-86.226 18.055-27.174 42.129-49.32 72.888-64.415 30.761-15.098 68.208-23.151 104.986-24.827Z" clip-rule="evenodd"/><path stroke="#2B2A29" stroke-miterlimit="22.926" stroke-width="7" d="M219.737 128.294c12.455 1.09 21.984 6.626 24.006 45.124 2.022 38.498-3.464 109.956-5.888 164.896-2.425 54.939-1.788 93.357-1.802 124.644-.015 31.288-.684 55.444-2.441 74.485-1.753 19.039-4.596 32.964-14.626 36.989-10.03 4.026-27.25-1.845-41.324-9.759-14.076-7.913-25.005-17.869-36.374-35.986-11.367-18.117-23.173-44.396-30.079-67.936-6.906-23.541-8.911-44.342-8.576-71.183.333-26.84 3.009-59.72 5.683-86.225 2.676-26.505 5.35-46.635 11.034-67.435 5.683-20.802 14.377-42.274 24.407-59.385 10.03-17.111 21.399-29.861 34.773-37.912 13.374-8.052 28.753-11.408 41.207-10.317Z" clip-rule="evenodd"/><path stroke="#2B2A29" stroke-miterlimit="22.926" stroke-width="7" d="M803.786 525.149H611.827c-174.765 0-316.441 18.148-316.441 40.534s141.676 40.534 316.441 40.534h191.959c174.766 0 316.444-18.148 316.444-40.534s-141.678-40.534-316.444-40.534ZM293.89 392.037c27.472-19.611 50.024-57.982 85.246-65.989 54.283-12.343 111.98 18.148 146.147-15.419l63.835-62.713"/><path stroke="#2B2A29" stroke-miterlimit="22.926" stroke-width="7" d="m314.744 455.865 65.528-59.878c41.379-37.811 139.689 20.605 178.2-20.144l120.91-127.927M498.19 472.103c42.777-30.537 103.077-107.269 157.922-119.738 84.525-19.219 101.158 14.775 151.772-40.023l59.505-64.426M604.589 472.105c25.414-24.442 30.254-44.148 65.848-54.641 12.406-3.657 57.452.041 71.628-3.182 84.523-19.217 96.635-22.934 145.787-79.056l76.462-87.309M804.176 472.795c21.103-21.153 86.429-116.033 121.649-124.04 54.281-12.34 103.135 20.103 142.655-6.909l50.16-34.287M881.679 472.105c14.623-26.158 42.05-60.019 77.267-68.024 31.136-7.077 76.874 6.028 107.754-.364 22.95-4.75 40.14-21.844 52.03-29.566M293.89 392.037v-37.322c0-12.135 0-23.81.09-32.401.09-8.59.27-14.094.825-18.838.554-4.743 1.484-8.726 3.539-13.706 2.057-4.979 5.241-10.955 9.24-16.247a60.423 60.423 0 0 1 14.438-13.69c5.621-3.797 12.044-6.784 19.582-8.634 7.539-1.851 16.194-2.567 57.632-2.925 41.437-.358 115.661-.358 189.882-.358M679.382 247.916H867.39"/><path stroke="#2B2A29" stroke-miterlimit="22.926" stroke-width="7" d="M964.314 247.917c24.128 0 48.256-.001 65.036.109 16.78.111 26.2.332 34.51 1.676 8.31 1.343 15.5 3.811 21.92 7.37a59.27 59.27 0 0 1 16.85 13.925c4.79 5.718 8.7 12.508 11.22 18.78 2.52 6.271 3.66 12.027 4.79 17.782M1118.73 374.151c-.35 15.484-.71 30.967-2.26 42.278-1.56 11.312-4.32 18.454-9.73 25.817-5.41 7.364-13.47 14.949-22.39 19.961-8.91 5.014-18.68 7.456-52.6 8.676-33.924 1.222-91.997 1.222-150.071 1.222M605.951 472.105c66.075.228 132.148.458 198.225.688M314.744 455.865c3.802 2.739 7.602 5.478 11.994 7.852 4.391 2.376 9.374 4.388 15.759 5.725 6.386 1.337 14.173 2 40.355 2.331 26.182.332 70.761.332 115.339.332"/><path stroke="#2B2A29" stroke-miterlimit="22.926" stroke-width="7" d="M455.635 177.525c105.725.333 316.963 1.96 431.558 2.774 114.597.813 132.547.813 146.037-.4 13.48-1.213 22.5-3.637 30.65-8.14 8.14-4.504 15.42-11.088 19.05-18.882 3.64-7.797 3.64-16.803-4.17-24.811-7.82-8.007-23.44-15.012-38.74-21.35-15.29-6.339-30.25-12.011-44.214-16.514-13.964-4.504-26.93-7.841-38.899-9.342-11.969-1.5-22.939-1.166-35.407.835-12.467 2.001-26.432 5.67-42.224 10.509-15.792 4.837-33.412 10.841-52.363 16.18-18.949 5.337-39.231 10.008-59.345 14.845-20.113 4.837-40.061 9.843-60.674 13.679-20.613 3.836-41.89 6.505-60.841 8.174-18.95 1.668-35.573 2.335-53.027 1.668-17.455-.668-35.741-2.67-58.848-4.837-23.106-2.17-51.032-4.504-71.812-6.84-20.778-2.335-34.408-4.671-49.204-7.007-14.794-2.334-30.754-4.669-43.054-6.17-12.301-1.502-20.945-2.17-27.927-1.002-6.982 1.168-12.302 4.171-16.624 9.008-4.321 4.838-7.646 11.509-8.248 18.536-.602 7.027 1.517 14.407 7.336 19.579 5.818 5.171 15.334 8.132 20.196 9.133 4.862 1 5.071.042 110.794.375Z" clip-rule="evenodd"/></svg>

<svg width="1163" height="680" viewBox="0 0 1163 680" fill="none" xmlns="http://www.w3.org/2000/svg">
<path fill-rule="evenodd" clip-rule="evenodd" d="M264.123 31.5856C300.901 29.9081 337.011 34.6037 387.163 42.6554C437.316 50.7086 501.509 62.1153 546.313 67.4836C591.116 72.8519 616.525 72.1804 650.964 66.8121C685.402 61.4438 728.867 51.38 767.651 40.9792C806.436 30.5784 840.539 19.8417 868.624 12.7959C896.71 5.75011 918.776 2.3951 952.545 4.74415C986.316 7.09321 1031.79 15.145 1066.89 23.8684C1102 32.5917 1126.74 41.9852 1140.78 52.0503C1154.83 62.1154 1158.17 72.852 1158.84 167.464C1159.51 262.076 1157.5 440.565 1153.49 536.855C1149.48 633.145 1143.46 647.236 1130.42 656.294C1117.38 665.353 1097.32 669.38 1063.88 672.063C1030.45 674.748 983.64 676.09 929.475 674.747C875.311 673.406 813.792 669.38 761.967 666.025C710.143 662.67 668.016 659.986 621.54 660.32C575.067 660.656 524.246 664.013 470.081 667.366C415.917 670.721 358.409 674.078 314.275 675.42C270.141 676.761 239.382 676.09 210.293 670.051C181.204 664.013 153.788 652.605 133.392 640.861C112.998 629.119 99.6231 617.041 87.2518 598.587C74.8819 580.134 63.513 555.308 55.8236 531.487C48.1342 507.666 44.1215 484.852 40.4434 463.379C36.7667 441.907 33.4219 421.777 28.0735 408.693C22.7237 395.607 15.3676 389.568 10.687 377.824C6.0051 366.082 4 348.637 4 335.552C4 322.468 6.00507 313.743 10.3524 304.686C14.6997 295.628 21.3852 286.233 27.4042 270.801C33.4219 255.367 38.7717 233.894 47.465 207.054C56.1582 180.214 68.195 148.004 86.2493 120.828C104.304 93.6536 128.378 71.5088 159.137 56.4126C189.898 41.315 227.345 33.2618 264.123 31.5856Z" stroke="#2B2A29" stroke-width="7" stroke-miterlimit="22.9256"/>
<path fill-rule="evenodd" clip-rule="evenodd" d="M219.737 128.294C232.192 129.384 241.721 134.92 243.743 173.418C245.765 211.916 240.279 283.374 237.855 338.314C235.43 393.253 236.067 431.671 236.053 462.958C236.038 494.246 235.369 518.402 233.612 537.443C231.859 556.482 229.016 570.407 218.986 574.432C208.956 578.458 191.736 572.587 177.662 564.673C163.586 556.76 152.657 546.804 141.288 528.687C129.921 510.57 118.115 484.291 111.209 460.751C104.303 437.21 102.298 416.409 102.633 389.568C102.966 362.728 105.642 329.848 108.316 303.343C110.992 276.838 113.666 256.708 119.35 235.908C125.033 215.106 133.727 193.634 143.757 176.523C153.787 159.412 165.156 146.662 178.53 138.611C191.904 130.559 207.283 127.203 219.737 128.294V128.294Z" stroke="#2B2A29" stroke-width="7" stroke-miterlimit="22.9256"/>
<path d="M803.786 525.149H611.827C437.062 525.149 295.386 543.297 295.386 565.683C295.386 588.069 437.062 606.217 611.827 606.217H803.786C978.552 606.217 1120.23 588.069 1120.23 565.683C1120.23 543.297 978.552 525.149 803.786 525.149Z" stroke="#2B2A29" stroke-width="7" stroke-miterlimit="22.9256"/>
<path d="M293.89 392.037C321.362 372.426 343.914 334.055 379.136 326.048C433.419 313.705 491.116 344.196 525.283 310.629L589.118 247.916" stroke="#2B2A29" stroke-width="7" stroke-miterlimit="22.9256"/>
<path d="M314.744 455.865L380.272 395.987C421.651 358.176 519.961 416.592 558.472 375.843L679.382 247.916" stroke="#2B2A29" stroke-width="7" stroke-miterlimit="22.9256"/>
<path d="M498.19 472.103C540.967 441.566 601.267 364.834 656.112 352.365C740.637 333.146 757.27 367.14 807.884 312.342L867.389 247.916" stroke="#2B2A29" stroke-width="7" stroke-miterlimit="22.9256"/>
<path d="M604.589 472.105C630.003 447.663 634.843 427.957 670.437 417.464C682.843 413.807 727.889 417.505 742.065 414.282C826.588 395.065 838.7 391.348 887.852 335.226L964.314 247.917" stroke="#2B2A29" stroke-width="7" stroke-miterlimit="22.9256"/>
<path d="M804.176 472.795C825.279 451.642 890.605 356.762 925.825 348.755C980.106 336.415 1028.96 368.858 1068.48 341.846L1118.64 307.559" stroke="#2B2A29" stroke-width="7" stroke-miterlimit="22.9256"/>
<path d="M881.679 472.105C896.302 445.947 923.729 412.086 958.946 404.081C990.082 397.004 1035.82 410.109 1066.7 403.717C1089.65 398.967 1106.84 381.873 1118.73 374.151" stroke="#2B2A29" stroke-width="7" stroke-miterlimit="22.9256"/>
<path d="M293.89 392.037C293.89 379.444 293.89 366.852 293.89 354.715C293.89 342.58 293.89 330.905 293.98 322.314C294.07 313.724 294.25 308.22 294.805 303.476C295.359 298.733 296.289 294.75 298.344 289.77C300.401 284.791 303.585 278.815 307.584 273.523C311.585 268.233 316.402 263.628 322.022 259.833C327.643 256.036 334.066 253.049 341.604 251.199C349.143 249.348 357.798 248.632 399.236 248.274C440.673 247.916 514.897 247.916 589.118 247.916" stroke="#2B2A29" stroke-width="7" stroke-miterlimit="22.9256"/>
<path d="M679.382 247.916C742.052 247.916 804.721 247.916 867.39 247.916" stroke="#2B2A29" stroke-width="7" stroke-miterlimit="22.9256"/>
<path d="M964.314 247.917C988.442 247.917 1012.57 247.916 1029.35 248.026C1046.13 248.137 1055.55 248.358 1063.86 249.702C1072.17 251.045 1079.36 253.513 1085.78 257.072C1092.2 260.629 1097.85 265.279 1102.63 270.997C1107.42 276.715 1111.33 283.505 1113.85 289.777C1116.37 296.048 1117.51 301.804 1118.64 307.559" stroke="#2B2A29" stroke-width="7" stroke-miterlimit="22.9256"/>
<path d="M1118.73 374.151C1118.38 389.635 1118.02 405.118 1116.47 416.429C1114.91 427.741 1112.15 434.883 1106.74 442.246C1101.33 449.61 1093.27 457.195 1084.35 462.207C1075.44 467.221 1065.67 469.663 1031.75 470.883C997.826 472.105 939.753 472.105 881.679 472.105" stroke="#2B2A29" stroke-width="7" stroke-miterlimit="22.9256"/>
<path d="M605.951 472.105C672.026 472.333 738.099 472.563 804.176 472.793" stroke="#2B2A29" stroke-width="7" stroke-miterlimit="22.9256"/>
<path d="M314.744 455.865C318.546 458.604 322.346 461.343 326.738 463.717C331.129 466.093 336.112 468.105 342.497 469.442C348.883 470.779 356.67 471.442 382.852 471.773C409.034 472.105 453.613 472.105 498.191 472.105" stroke="#2B2A29" stroke-width="7" stroke-miterlimit="22.9256"/>
<path fill-rule="evenodd" clip-rule="evenodd" d="M455.635 177.525C561.36 177.858 772.598 179.485 887.193 180.299C1001.79 181.112 1019.74 181.112 1033.23 179.899C1046.71 178.686 1055.73 176.262 1063.88 171.759C1072.02 167.255 1079.3 160.671 1082.93 152.877C1086.57 145.08 1086.57 136.074 1078.76 128.066C1070.94 120.059 1055.32 113.054 1040.02 106.716C1024.73 100.377 1009.77 94.705 995.806 90.2024C981.842 85.6985 968.876 82.361 956.907 80.8601C944.938 79.3592 933.968 79.6937 921.5 81.6949C909.033 83.696 895.068 87.3652 879.276 92.2035C863.484 97.0405 845.864 103.045 826.913 108.384C807.964 113.721 787.682 118.392 767.568 123.229C747.455 128.066 727.507 133.072 706.894 136.908C686.281 140.744 665.004 143.413 646.053 145.082C627.103 146.75 610.48 147.417 593.026 146.75C575.571 146.082 557.285 144.08 534.178 141.913C511.072 139.743 483.146 137.409 462.366 135.073C441.588 132.738 427.958 130.402 413.162 128.066C398.368 125.732 382.408 123.397 370.108 121.896C357.807 120.394 349.163 119.726 342.181 120.894C335.199 122.062 329.879 125.065 325.557 129.902C321.236 134.74 317.911 141.411 317.309 148.438C316.707 155.465 318.826 162.845 324.645 168.017C330.463 173.188 339.979 176.149 344.841 177.15C349.703 178.15 349.912 177.192 455.635 177.525V177.525Z" stroke="#2B2A29" stroke-width="7" stroke-miterlimit="22.9256"/>
</svg>
